X:1
T:Title
L:1/16
Q:1/4=112
M:1/8
I:linebreak $
K:C
V:1 bass-8 nm="بلالايكا كونترابيس, Lead" snm="Cb. Bal."
V:1
 z2 | e'd' | ^f/^f'/f/f'/ | ^f/^f'/f/f'/ | ^f/^f'/f/f'/ | ^f/^f'/f/f'/- | f'^g- | g^c' | bd/d'/ | %9
 d/d'/d/d'/ |$ d/d'/d/d'/ | d/d'/d/d'/ | d<d' | e2 | ba | ^c/^c'/c/c'/ | ^c/^c'/c/c'/ | %17
 ^c/^c'/c/c'/ | ^c/^c'/c/ z/ | e/e'/e/e'/ |$ e/e'/e/a/ | a'/a/a'/a/ | a'/a/a'/a/ | a'/a/a'/a/ | %24
 a'/ z/ z | z2 | z2 | z2 | C,,,,/ z/ z |] %29
